X:100
T:Clifton Springs. THO5.100
M:2/4
L:1/8
B:Thompson's Complete Collection of 200 Favourite Dances Vol.5
F:https://www.libraryofdance.org/manuals/1780c-Thompson-Compleat-5.pdf
Z:vmp. Peter Dunk 2024
Q:1/4=120
K:D
fa/f/ dd|g2 ed|cABc|df/d/ A2|\\
fa/f/ dd|g2 ed|cABc|d2 D2:|
|:Adcd|cB A2|g2 (f/e/d/c/)|a2 (g/f/e/d/)|\\
Adcd|cB A2|g2 (f/e/d/c/)|d2 D2:|
W:
W:First & 2nd Couples change sides and back again ./.
W:Hands four round ./:
W:Lead down one Couple, up again and cast off :/.
W:Allemand with your Partner :/:

